X:1
T:Title
%%score 1 2
L:1/8
Q:1/4=80
M:4/4
K:D
V:1 treble nm="Grand Piano, Soprano"
V:2 bass nm="Choir Pad, Blessed Bright &amp; Shining Star"
V:1
 [Fd][FA][Ac][GB] [FA][EG] [DF]2 | [EG][EG][DF][DF] [A,E]D [CA]2 | %2
w: By~Anonymous,~ca.~1860 * * * * * *||
 [DA][DF][Fd][FA] [GB][Gc] [Fd]2 | [Ec][Ec][Ge][Fd] [Ec][EB] [CA]2 | [DA]2 [Fd][FA] [Ac] [GB]3 | %5
w: |||
 [FA][GB][FA][DF] [DF] [CE]3 | D2 [DF][FA] [GB] [Bd]2 [GB] | [FA][FA][GB][Gc] [Fd]4- | %8
w: |||
 [Fd]2 z2 z4 |] %9
w: |
V:2
 [D,A,][E,D][G,D][G,D] [A,D][A,,A,] [D,A,]2 | [C,A,][C,A,][D,A,][D,A,] [D,A,][B,,F,] [A,,A,]2 | %2
 [D,F,][D,A,][D,A,][D,D] [G,D][E,A,] [D,A,]2 | A,A,[C,A,][D,A,] [E,A,][E,^G,] [A,,A,]2 | %4
 [D,F,]2 [D,A,][D,D] [G,D] [G,D]3 | [D,D][D,D][D,D][D,A,] [A,,A,] [A,,A,]3 | %6
 [D,F,]2 [D,A,][D,D] [G,D] [G,D]2 [G,D] | [A,D][A,D]A,A, [D,A,]4- | [D,A,]2 z2 z4 |] %9

